X:1
T:Lichtjes van de Schelde
C:"Petites lumires sur l'Escaut", appris de Modest Vercauteren, fichier abc : Bernard Loffet
L:1/8
Q:420
M:3/4
K:C
 [G2G,,2] [c2G,2] [d2G,2] | [e2C,,2] C,2 [c2C,2] | [g2G,,2] G,2 [f2G,2] | [e2C,,2] C,2 [c2C,2] | \
 [G2C,,2] [c2C,2] [d2C,2] | [e2C,,2] C,2 [c2C,2] | [f2F,,2] F,2 [e2F,2] | [d2G,,2] G,2 G,2 | \
 [G2G,,2] [B2G,2] [c2G,2] | [d2G,,2] G,2 [B2G,2] | [f2F,,2] F,2 [e2F,2] | [d2G,,2] G,2 [B2G,2] | \
 [G2G,,2] [B2G,2] [c2G,2] | [d2G,,2] G,2 [g2G,2] | [g2G,,2] G,2 [f2G,2] | [e2C,,2] C,2 C,2 | \
 [G2C,,2] [c2C,2] [d2C,2] | [e2C,,2] C,2 [c2C,2] | [g2G,,2] G,2 [f2G,2] | [e2C,,2] C,2 [c2C,2] | \
 [G2C,,2] [c2C,2] [d2C,2] | [e2C,,2] C,2 [e2C,2] | [f2G,,2] G,2 [g2G,2] | [a2F,,2] F,2 F,2 | \
 [a2F,,2] F,2 [f2F,2] | [e2F,,2] F,2 [d2F,2] | [g2C,,2] C,2 [e2C,2] | [d2C,,2] C,2 [c2C,2] | \
 [G2C,,2] [c2C,2] [d2C,2] | [e2C,,2] C,2 [f2G,2] | [d2G,,2] G,2 [e2G,2] | [c2C,,2] C,2 C,2 | \
W:Created with TablEdit http://www.tabledit.com/ by Bernard Loffet
